!!!COM: Vivaldi, Antonio Lucio
!!!CDT: 1678/03/04-1741/08/28
!!!OPR: 12 sonatas for two violins and basso continuo
!!!OTL: Sonata in D major, op. @{OPS}, no. @{ONM} (@{SCT})
!!!OPS: 1
!!!ONM: 6
!!!OMV: 4. Allemanda
!!!SCT: RV 62
!!!SCA: Antonio Vivaldi: Thematisch-systematisches Verzeichnis seiner Werke (Ryom-Verzeichnis)
!!!OMD: Allegro
!!!key: D
**kern	**dynam	**fb	**kern	**dynam	**kern	**dynam
*part3	*	*	*part2	*	*part1	*
*staff3	*	*	*staff2	*	*staff1	*
*ICstr&ICklav	*	*	*ICstr	*	*ICstr	*
*Icello&Icemba	*	*	*Ivioln	*	*Ivioln	*
*	*	*	*I#2	*	*I#1	*
*I"Violoncello\nContinuo	*	*	*I"Violin 2	*	*I"Violin 1	*
*I'bc	*	*	*I'v2	*	*I'v1	*
*>[A,A,B,B]	*>[A,A,B,B]	*>[A,A,B,B]	*>[A,A,B,B]	*>[A,A,B,B]	*>[A,A,B,B]	*>[A,A,B,B]
*>norep[A,B]	*>norep[A,B]	*>norep[A,B]	*>norep[A,B]	*>norep[A,B]	*>norep[A,B]	*>norep[A,B]
*>A	*>A	*>A	*>A	*>A	*>A	*>A
*clefF4	*	*	*clefG2	*	*clefG2	*
*k[f#c#]	*	*	*k[f#c#]	*	*k[f#c#]	*
*D:	*	*	*D:	*	*D:	*
*M4/4	*	*	*M4/4	*	*M4/4	*
*met(c)	*	*	*met(c)	*	*met(c)	*
*MM120	*	*	*MM120	*	*MM120	*
=1	=1	=1	=1	=1	=1	=1
8d\L	.	.	4ff#y\	.	8aa\L	.
8D\J	.	.	.	.	16gg\L	.
.	.	.	.	.	16ff#y\JJ	.
8r	.	.	8r	.	8ee\L	.
8d\	.	.	8ff#y\	.	8dd\J	.
8A\L	.	6 4	(8ff#y\L	.	(8dd\L	.
8AA\J	.	5 3	8ee\J)	.	8cc#y\J)	.
8r	.	.	8r	.	8r	.
8A\	.	.	8ee\	.	8aa\	.
=2	=2	=2	=2	=2	=2	=2
8d\L	.	.	4ff#y\	.	8aa\L	.
8D\J	.	.	.	.	16gg\L	.
.	.	.	.	.	16ff#y\JJ	.
8r	.	.	8r	.	8ee\L	.
8d\	.	.	8ff#y\	.	8dd\J	.
8A\L	.	6 4	(8ff#y\L	.	(8dd\L	.
8AA\J	.	5 3	8ee\J)	.	8cc#y\J)	.
8r	.	.	4r	.	8r	.
8A\	.	.	.	.	8aa\	.
=3	=3	=3	=3	=3	=3	=3
8d\L	.	.	4r	.	8aa\L	.
8D\J	.	.	.	.	16gg\L	.
.	.	.	.	.	16ff#y\JJ	.
8r	.	.	8r	.	8gg\L	.
8d\	.	.	8dd\	.	8aa\J	.
8G/L	.	.	8dd\L	.	[2bb\	.
8GG/J	.	.	16cc#y\L	.	.	.
.	.	.	16b\JJ	.	.	.
8r	.	.	8cc#y\L	.	.	.
8G\	.	.	8dd\J	.	.	.
=4	=4	=4	=4	=4	=4	=4
8c#y\L	.	7	[2ee\	.	8bb\L]	.
8C#y\J	.	.	.	.	16aa\L	.
.	.	.	.	.	16gg\JJ	.
8r	.	.	.	.	8ff#y\L	.
8c#y\	.	.	.	.	8ee\J	.
8F#y/L	.	7	8ee\L]	.	[2aa\	.
8FF#y/J	.	.	16dd\L	.	.	.
.	.	.	16cc#y\JJ	.	.	.
8r	.	.	8b/L	.	.	.
8F#y\	.	.	8a/J	.	.	.
!!LO:LB:g=original
=5	=5	=5	=5	=5	=5	=5
8B\L	.	7	[2dd\	.	8aa\L]	.
8BB\J	.	.	.	.	16bb\L	.
.	.	.	.	.	16aa\JJ	.
8r	.	.	.	.	8bb\L	.
8B\	.	.	.	.	8ff#y\J	.
8E/L	.	7	8dd\L]	.	[2gg\	.
8EE/J	.	.	16ee\L	.	.	.
.	.	.	16dd\JJ	.	.	.
8r	.	.	8ee\L	.	.	.
8E\	.	.	8b\J	.	.	.
=6	=6	=6	=6	=6	=6	=6
8A\L	.	7	4.cc#y\	.	8gg\L]	.
8AA\J	.	.	.	.	16aa\L	.
.	.	.	.	.	16bb\JJ	.
8r	.	.	.	.	8aa\L	.
8A\	.	.	8cc#y\	.	8gg\J	.
8D/L	.	5 4	4dd\	.	(8gg\L	.
8DD/J	.	3	.	.	8ff#y\J)	.
8r	.	.	4r	.	8r	.
8d\	.	6	.	.	8bb\	.
=7	=7	=7	=7	=7	=7	=7
8e\L	.	#	8r	.	8gg#X\L	.
8E\J	.	.	8ee\	.	8ee\J	.
8r	.	.	8cc#y\L	.	2aa\	.
8c#y\	.	6	8a\J	.	.	.
8d\L	.	6 5	4.b\	.	.	.
8B\	.	.	.	.	.	.
8e\	.	#	.	.	4gg#X\t	.
8E\J	.	.	8ee\	.	.	.
=8	=8	=8	=8	=8	=8	=8
8A\L	.	.	4.cc#y\	p	8aa\L	.
8AA\J	.	.	.	.	8ee\	p
8r	.	.	.	.	8ff#y\	.
8A\	p	.	8cc#y\	.	8ff#y\J	.
8G#X/L	.	7	4.b\	.	8ff#y\L	.
8GG#y/J	.	.	.	.	8b\	.
8r	.	.	.	.	8ee\	.
8G#y\	.	6	8b\	.	8ee\J	.
=9	=9	=9	=9	=9	=9	=9
8F#y/L	.	7	4a/	.	8ee\L	.
8FF#y/J	.	.	.	.	8a\J	.
8r	.	.	8r	.	2dd\	.
8F#y\	.	6	8ff#y\	.	.	.
8E/L	.	7 #	4g#X/	.	.	.
8EE/J	.	.	.	.	.	.
8r	.	.	[4a/	.	4cc#y\	.
8AA/	.	.	.	.	.	.
!!LO:LB:g=original
=10	=10	=10	=10	=10	=10	=10
8D/L	.	6 5	4a/]	.	2b\	.
8BB/J	.	.	.	.	.	.
8E/L	.	#	4g#X/	.	.	.
8EE/J	.	.	.	.	.	.
2AA/	.	.	2a/	.	2a/	.
=11:|!|:	=11:|!|:	=11:|!|:	=11:|!|:	=11:|!|:	=11:|!|:	=11:|!|:
*>B	*>B	*>B	*>B	*>B	*>B	*>B
8A#X\L	.	6	4.cc#y\	.	8ee\L	.
8AA#X\J	.	.	.	.	16ff#y\L	.
.	.	.	.	.	16gg\JJ	.
8r	.	.	.	.	8ff#y\L	.
8A#X\	.	.	8cc#y\	.	8ee\J	.
8B\L	.	5 4	4f#y/	.	(8ee\L	.
8BB\J	.	3	.	.	8dd\J)	.
8r	.	.	8r	.	[4gg\	.
8B\	.	6	8dd\	.	.	.
=12	=12	=12	=12	=12	=12	=12
8An\L	.	7	4cc#y\	.	8gg\L]	.
8AA\J	.	.	.	.	8cc#y\J	.
8r	.	.	4dd\	.	[4ff#y\	.
8d\	.	.	.	.	.	.
8G/L	.	7	2b\	.	8ff#y\L]	.
8GG/J	.	.	.	.	8b\J	.
8r	.	.	.	.	[4ee\	.
8G\	.	6	.	.	.	.
=13	=13	=13	=13	=13	=13	=13
8F#y/L	.	7	4a/	.	8ee\L]	.
8FF#y/J	.	6	.	.	8dd\J	.
8r	.	.	8r	.	[4gg\	.
8c#y\	.	5nr	8ee\	.	.	.
8d\L	.	5 4	4a/	.	8gg\L]	.
8D\J	.	3	.	.	8ff#y\	.
8r	.	.	4dd\	.	8bb\	.
8B\	.	6#/	.	.	8gg#X\J	.
=14	=14	=14	=14	=14	=14	=14
8c#y\L	.	7 #	4g#X/	.	8ee#X\L	.
8C#y\J	.	.	.	.	8cc#y\J	.
8r	.	.	8r	.	2ff#y\	.
8A\	.	6	8cc#y\	.	.	.
8B\L	.	6#/ 5	8dd\L	.	.	.
8G#X\	.	.	8b\	.	.	.
8c#y\	.	#	8g#X\	.	4ee#X\t	.
8C#y\J	.	.	8cc#y\J	.	.	.
!!LO:LB:g=original
=15	=15	=15	=15	=15	=15	=15
8F#y/L	.	.	4a/	.	8ff#y\L	.
8FF#y/J	.	.	.	.	16ff#y\L	.
.	.	.	.	.	16ggn\JJ	.
8r	.	.	8r	.	[4aa\	.
8F#y\	.	.	16ff#y\LL	.	.	.
.	.	.	16ee\JJ	.	.	.
8B\L	.	7 #	8dd#X\L	.	8aa\L]	.
8BB\J	.	.	8dd#y\	.	8aa\J	.
8r	.	.	8dd#y\	.	8aa\L	.
8B\	.	.	8dd#y\J	.	16gg\L	.
.	.	.	.	.	16ff#y\JJ	.
=16	=16	=16	=16	=16	=16	=16
8E/L	.	.	4ee\	.	8gg\L	.
8EE/J	.	.	.	.	16ee\L	.
.	.	.	.	.	16ff#y\JJ	.
8r	.	.	8r	.	[4gg\	.
8E\	.	.	16ee\LL	.	.	.
.	.	.	16dd\JJ	.	.	.
8A\L	.	7	8cc#y\L	.	8gg\L]	.
8AA\J	.	.	8cc#y\	.	8gg\J	.
8r	.	.	8cc#y\	.	8gg\L	.
8A\	.	.	8cc#y\J	.	16ff#y\L	.
.	.	.	.	.	16ee\JJ	.
=17	=17	=17	=17	=17	=17	=17
8D/L	.	.	8dd\L	.	8ff#y\L	.
8DD/J	.	.	8a\J	.	8ff#y\J	.
8r	.	.	4dd\	.	16ff#y\LL	.
.	.	.	.	.	16ee\	.
8d\	.	6	.	.	16dd\	.
.	.	.	.	.	16cc#y\JJ	.
8e\L	.	.	4g/	.	8b\L	.
8E\J	.	.	.	.	16gg\L	.
.	.	.	.	.	16ff#y\JJ	.
8r	.	.	4ee\	.	16ee\LL	.
.	.	.	.	.	16dd\	.
8e\	.	.	.	.	16cc#y\	.
.	.	.	.	.	16b\JJ	.
=18	=18	=18	=18	=18	=18	=18
8f#y\L	.	#	4.cc#y\	.	8a#X\L	.
8F#y\J	.	.	.	.	8ff#y\J	.
8r	.	.	.	.	16ff#y\LL	.
.	.	.	.	.	16gg\	.
8A#X\	.	6	8cc#y\	.	16ff#y\	.
.	.	.	.	.	16ee\JJ	.
8B\L	.	.	4f#y/	.	8dd\L	.
8BB\J	.	.	.	.	8b\J	.
8r	.	.	8r	.	[4ff#y\	.
8B\	.	.	8b\	.	.	.
=19	=19	=19	=19	=19	=19	=19
8E/L	.	9	2gg\	.	8ff#y\L]	.
8EE/J	.	8	.	.	8ee\	.
8r	.	.	.	.	8ee\	.
8E\	.	.	.	.	8ee\J	.
8F#y/L	.	#	4cc#y\	.	4aa#X\	.
8FF#y/J	.	.	.	.	.	.
8r	.	.	4dd\	.	[4bb\	.
8D\	.	6	.	.	.	.
!!LO:PB:g=original
=20	=20	=20	=20	=20	=20	=20
8E/L	.	6 5	2cc#y\	.	4bb\]	.
8C#y/	.	.	.	.	.	.
8F#y/	.	#	.	.	4aa#X\	.
8FF#y/J	.	.	.	.	.	.
8B\L	.	.	4.b\	.	8.bb\L	.
8BB\J	.	.	.	.	.	.
.	.	.	.	.	16aan\Jk	.
8r	.	.	.	.	16gg\LL	.
.	.	.	.	.	16ff#y\	.
8G\	.	6	8b\	.	16ee\	.
.	.	.	.	.	16dd\JJ	.
=21	=21	=21	=21	=21	=21	=21
8A\L	.	.	4e/	.	8cc#y\L	.
8AA\J	.	.	.	.	8a\J	.
8r	.	.	4r	.	[4aa\	.
8A\	.	.	.	.	.	.
8d\L	.	6 5	2b\	.	8aa\L]	.
8D\J	.	.	.	.	16gg\L	.
.	.	.	.	.	16ff#y\JJ	.
8r	.	.	.	.	[4gg\	.
8e\	.	.	.	.	.	.
=22	=22	=22	=22	=22	=22	=22
8A\L	.	7	4cc#y\	.	8gg\L]	.
8AA\J	.	.	.	.	16ff#y\L	.
.	.	.	.	.	16ee\JJ	.
8r	.	.	2dd\	.	8ff#y\L	.
8D\	.	.	.	.	16gg\L	.
.	.	.	.	.	16ff#y\JJ	.
8G\L	.	6 5	.	.	2ee\	.
8E\	.	.	.	.	.	.
8A\	.	.	4cc#y\	.	.	.
8AA\J	.	.	.	.	.	.
=23	=23	=23	=23	=23	=23	=23
8d\L	.	.	4dd\	p	8dd\L	p
8D\J	.	.	.	.	8a\	.
8r	.	.	8r	.	8b\	.
8d\	p	6	8f#y/	.	8b\J	.
8c#y\L	.	7	4.e/	.	8b/L	.
8C#y\J	.	.	.	.	8e/	.
8r	.	.	.	.	8a/	.
8c#y\	.	6	8e/	.	8a/J	.
=24	=24	=24	=24	=24	=24	=24
8B\L	.	7	4d/	.	8a/L	.
8BB\J	.	.	.	.	8d/J	.
8r	.	.	8r	.	2g/	.
8B\	.	6	8b\	.	.	.
8A\L	.	7	4c#y/	.	.	.
8AA\J	.	.	.	.	.	.
8r	.	.	[4d/	.	4f#y/	.
8D\	.	.	.	.	.	.
=25	=25	=25	=25	=25	=25	=25
8G\L	.	6 5	4d/]	.	2e/	.
8E\	.	.	.	.	.	.
8A\	.	.	4c#y/	.	.	.
8AA\J	.	.	.	.	.	.
2DD/;	.	.	2d/;	.	2d/;	.
=:|!	=:|!	=:|!	=:|!	=:|!	=:|!	=:|!
*-	*-	*-	*-	*-	*-	*-
!!!SMS: RV 62 / Estienne Roger (No. 363), Amsterdam [facs.]
!!!ENC: Fran Bennion   rev. 05/12/21 E Correia
!!!END: 2004/10/11
!!!ONB: Converted from MuseData with musedata2hum on Sat May 11 12:01:55 2024
!!!YEM: (C) 2004, 2019 Center for Computer Assisted Research in the Humanities
!!!system-decoration: [(s1,s2,s3)]
!!!URL-info: https://wiki.ccarh.org/wiki/MuseData:_Antonio_Vivaldi#Op._1:_Suonate_da_camera_a_tr.C3.A8.2C_due_violini_e_violone_o_cembalo Information about Vivaldi Op. 1 on the CCARH wiki
!!!URL-pdf: https://pdf.musedata.org/vivaldi-op01-no06.pdf#page=4 MuseData edition
!!!URL-pdf: https://s9.imslp.org/files/imglnks/usimg/1/18/IMSLP280399-PMLP10351-Vivaldi_Sonatas_Op_1_-_Violino_Primo.pdf#page=10 Violino primo part, Amsterdam: Estienne Roger, n.d.(ca.1723). Plate 363.
!!!URL-pdf: https://s9.imslp.org/files/imglnks/usimg/d/d5/IMSLP280400-PMLP10351-Vivaldi_Sonatas_Op_1_-_Violino_Secondo.pdf#page=9 Violino secondo part, Amsterdam: Estienne Roger, n.d.(ca.1723). Plate 363.
!!!URL-pdf: https://s9.imslp.org/files/imglnks/usimg/8/89/IMSLP280401-PMLP10351-Vivaldi_Sonatas_Op_1_-_Organo_e_Violoncello.pdf#page=8 Organo e Violoncello parts, Amsterdam: Estienne Roger, n.d.(ca.1723). Plate 363.
!!!URL-youtube: https://www.youtube.com/watch?v=P5HHPe_W6Uo&t=1949s L'Arte dell'Arco
!!!title: @{OTL}, mov. @{OMV}
!!!filter-vcross: vcross
!!!mei: scoreDef@tempo.dist="5.5"
!!!EEV: 2024/05/11
!!!source-file: https://bitbucket.org/musedata/vivaldi/src/master/roger/op1/no06/stage2/04/01
!!!source-file: https://bitbucket.org/musedata/vivaldi/src/master/roger/op1/no06/stage2/04/02
!!!source-file: https://bitbucket.org/musedata/vivaldi/src/master/roger/op1/no06/stage2/04/03
!!!source-file: https://bitbucket.org/musedata/vivaldi/src/master/roger/op1/no06/stage2/04/04
